X:1
T:[ID 8-11b]
T:[ID 8-11b]
T:Bezeichnung standardisiert: Menuet de Roise [2]; Menuet Roise In dieser Quelle auch als: Menuet de Roise In dieser Quelle auch als: Menuetto de Rosise
T:Urheber unbekannt Datum in der hier transkribierten schriftlichen Quelle: 1796
C:Urheber unbekannt
C:Datum in der hier transkribierten schriftlichen Quelle: 1796
L:1/8
M:3/4
K:D
V:1 treble 
V:1
 e2 c2 Td2 | e3 f e2 | d2 B2 Tc2 | d3 e d2 | c/d/e/f/ e2 z2 | a3/2(g/4f/4) e4 | e3/2(d/4e/4) fedc | %7
 c4 B2 :: B2 G2 A2 | B3 c B2 | B2 G2 A2 | B3 c B2 | d3/2(c/4d/4) B2 z2 | d3/2(c/4d/4) B2 z2 | %14
 c/d/e/f/ ee f/e/d/c/ | B6 | e2 c2 Td2 | e3 f e2 | d2 B2 c2 | d3 e d2 | c/d/e/f/ e2 z2 | %21
 a3/2(g/4f/4) e4 | e>e edcB | B4 A2 :| %24

